icon/lg/weebly.svg

<?xml version="1.0" encoding="UTF-8" standalone="no"?>
<svg viewBox="0 0 256 197" version="1.1" xmlns="http://www.w3.org/2000/svg" xmlns:xlink="http://www.w3.org/1999/xlink" preserveAspectRatio="xMidYMid" height="1em" width="1em">
  <g>
    <path d="M212.310219,0 C192.338025,0 175.69345,13.2780923 170.587862,33.1498909 C161.385496,3.29037604 137.831456,0.0226699137 128.004048,0.0226699137 C118.179879,0.0226699137 94.6339353,3.29037604 85.4137576,33.1434138 C80.3065499,13.2894272 63.6603561,0.0226699137 43.69302,0.0226699137 C19.1917012,0.0226699137 0,17.5384168 0,39.8974288 C0,49.7847497 2.44349284,57.6787375 5.39543945,66.2414877 L38.6619185,160.316772 C49.8009425,191.51705 72.493526,196.175717 85.028369,196.175717 C104.689661,196.175717 120.011284,186.105418 128.00081,168.259338 C135.998431,186.186382 151.321674,196.306879 170.97325,196.306879 C183.4919,196.306879 206.161814,191.640115 217.357513,160.324868 L250.80859,65.9289668 L251.069294,65.1500933 C251.451444,63.9404915 251.836832,62.8053765 252.20117,61.7269363 C253.982378,56.4578007 256,50.4842784 256,43.1635156 C256,18.153743 237.626035,0 212.310219,0 L212.310219,0 Z M228.078763,57.8746703 L194.629305,152.270571 C190.545482,163.69135 183.752604,172.192568 170.97325,172.192568 C159.000297,172.192568 151.930523,165.521136 148.398874,154.089022 L128.271229,91.2642146 L127.723913,91.2642146 L107.607603,154.089022 C104.069477,165.522755 96.9980834,172.061406 85.028369,172.061406 C72.2457763,172.061406 65.4480407,163.629818 61.3706948,152.209039 L28.1932762,58.3847434 C25.4728866,50.4956134 24.114311,45.6134856 24.114311,39.8958095 C24.114311,31.1905626 32.2770992,24.1369809 43.69302,24.1369809 C53.2127645,24.1369809 60.0105,30.4133085 62.1868117,39.6593947 L84.7595686,114.496018 L85.300408,114.496018 L108.145204,41.3078212 C111.14249,30.7031595 116.578412,24.1369809 128.004048,24.1369809 C139.423208,24.1369809 144.860748,30.6918245 147.851558,41.2964863 L170.697973,114.496018 L171.237193,114.496018 L193.818046,39.6593947 C195.991119,30.4133085 202.787236,24.114311 212.310219,24.114311 C223.726139,24.114311 231.885689,31.1938012 231.885689,43.1635156 C231.885689,47.5129005 229.976558,51.8817167 228.078763,57.8746703 L228.078763,57.8746703 Z" fill="#3192E7"/>
  </g>
</svg>

<svg width="256" height="197" xmlns="http://www.w3.org/2000/svg" preserveAspectRatio="xMidYMid"><path d="M212.31 0c-19.972 0-36.617 13.278-41.722 33.15C161.385 3.29 137.83.023 128.004.023c-9.824 0-33.37 3.267-42.59 33.12C80.307 13.29 63.66.023 43.693.023 19.192.023 0 17.538 0 39.897c0 9.888 2.443 17.782 5.395 26.344l33.267 94.076c11.139 31.2 33.832 35.859 46.366 35.859 19.662 0 34.983-10.07 42.973-27.917 7.997 17.927 23.32 28.048 42.972 28.048 12.519 0 35.189-4.667 46.385-35.982l33.45-94.396.261-.779c.382-1.21.768-2.345 1.132-3.423 1.781-5.27 3.799-11.243 3.799-18.563C256 18.154 237.626 0 212.31 0Zm15.769 57.875-33.45 94.396c-4.084 11.42-10.876 19.922-23.656 19.922-11.973 0-19.042-6.672-22.574-18.104L128.27 91.264h-.547l-20.116 62.825c-3.539 11.434-10.61 17.972-22.58 17.972-12.782 0-19.58-8.431-23.657-19.852L28.193 58.385c-2.72-7.89-4.079-12.772-4.079-18.49 0-8.704 8.163-15.758 19.579-15.758 9.52 0 16.318 6.276 18.494 15.522l22.573 74.837h.54l22.845-73.188c2.997-10.605 8.433-17.171 19.859-17.171 11.42 0 16.857 6.555 19.848 17.16l22.846 73.199h.54l22.58-74.837c2.173-9.246 8.97-15.545 18.492-15.545 11.416 0 19.576 7.08 19.576 19.05 0 4.349-1.91 8.718-3.807 14.71Z" fill="#3192E7"/></svg>
